dist/assets/segment.svg

<svg width="30" height="30" viewBox="0 0 30 30" fill="none" xmlns="http://www.w3.org/2000/svg">
<g id="segment" clip-path="url(#clip0_0_956)">
<path id="Vector" d="M18.75 22.5H3.75V20H18.75V22.5ZM26.25 7.5V10H3.75V7.5H26.25ZM18.75 16.25H3.75V13.75H18.75V16.25Z" fill="#1C4980"/>
</g>
<defs>
<clipPath id="clip0_0_956">
<rect width="30" height="30" fill="white" transform="matrix(-1 0 0 1 30 0)"/>
</clipPath>
</defs>
</svg>

<svg xmlns="http://www.w3.org/2000/svg" width="30" height="30" fill="none"><g clip-path="url(#a)"><path fill="#1C4980" d="M18.75 22.5h-15V20h15v2.5Zm7.5-15V10H3.75V7.5h22.5Zm-7.5 8.75h-15v-2.5h15v2.5Z"/></g><defs><clipPath id="a"><path fill="#fff" d="M30 0H0v30h30z"/></clipPath></defs></svg>
